X: 38303
T: St. Patrick's An Dro
R: polka
M: 2/4
K: Gminor
|:G/A/B/A/ Gd|BG Ad|c/d/c/B/ A>G|BG/B/ A>F|
G/A/B/A/ Gd|BG Ad|c/d/c/A/ BG/A/|B/G/A/F/ G>d:|
|:G/A/B/c/ d{e}d|cf dB|G/A/B/d/ c>d|c/d/c/B/ A2|
G/A/B/c/ d{e}d|cf dB|G/A/B/d/ c>A|B/G/A/F/ G>d:|

